X:21702
T:Connaughtman's Rambles, The
R:Jig
B:Tuneworks Tunebook 2 (https://www.tuneworks.co.uk/)
G:Tuneworks
Z:Jon Warbrick <jon.warbrick@googlemail.com>
M:6/8
L:1/8
K:D
|: "D" FAA dAA | BAA dAG | "D" FAA dfe | "G" dBB"A" BAG |
"D" FAA dAA | BAA def | "G" gfe dfe |1 "A" dBB BAG :|2 "A" dBB B3 |
|: "Bm" fbb faa | "F#m" fed ede | "Bm" fbb faa | fed"A" e3 |
"Bm" fbb faa | "F#m" fed def | "G" gfe dfe |1 "A" dBB BAB :|2 "A" dBB BAG |]